X:213
T:Gander In the Pratie Hole
S:Sessions
Z:Nigel Gatherer
R:Jig
O:Irish
M:6/8
L:1/8
K:D
FAD FAD|GFG EFG|FAD FAD|GED D3|FAD FAD|
GFG EFG|fed ecA|GED D3::Add ded|=cAB cAG|
Add ded|=cAB c2 B|Add ded|=cAB cde|fed ecA|GED D3:|
<end>
<start>
